X: 256
T:Rediggan's
T:The glen of Aherlow
T:Lafferty's
T:The woman I never forgot
R:Reel
O:Ireland
D:Planxty- Four Men and a Dog: Shifting Gravel.
D:Kevin Burke, Promenade
B:Music from Ireland Vol. 3
S:Music from Ireland Vol. 3
Z:Transcription, chords:Mike Long
M:C|
L:1/8
K:D
"Bm"B2AF ~B2AF|"Em"EDEF "(G)"EDB,D|"Bm"B2AF ~B2AF|\
"D"DFAF "A"FEE2|"Bm"B2AF BFAF|"Em"EDEF "G"EDB,A,|
"Em"B,E~E2 "D"DEFA|"Bm"BFAF "A"FEE2:|\
|:"Em"eB~B2 egfe|"D"fd~d2 Adfd|"Em"eB~B2 "(G)"egfe|
"D"dBAF "A"FEE2|"Em"eB~B2 egfe|"D"fd~d2 Adfd|\
"Em"BABd "G"egfe|"D"dBAF "A"FEE2:|

